assets/icons/illus/file-type-folder.svg

<svg xmlns="http://www.w3.org/2000/svg" width="32" height="32" viewBox="0 0 32 32">
  <g fill="none" fill-rule="evenodd" transform="translate(0 2)">
    <rect width="32" height="26" y="2" fill="#B2D3FF" rx="2"/>
    <path fill="#197BFF" d="M0,0.990777969 C0,0.443586406 0.449948758,0 1.00684547,0 L12.9931545,0 C13.5492199,0 14.3125,0.3125 14.7107565,0.71075654 L15.2892435,1.28924346 C15.6817835,1.68178346 16.4446309,2 17.0008717,2 L30.0059397,2 C31.1072288,2 32,2.89470506 32,4 L32,4 L17.0008717,4 C16.4481055,4 15.6875,4.3125 15.2892435,4.71075654 L14.7107565,5.28924346 C14.3182165,5.68178346 13.5500512,6 12.9931545,6 L1.00684547,6 C0.450780073,6 0,5.54902482 0,5.00922203 L0,0.990777969 Z"/>
  </g>
</svg>

<svg xmlns="http://www.w3.org/2000/svg" width="32" height="32"><g fill="none" fill-rule="evenodd" transform="translate(0 2)"><rect width="32" height="26" y="2" fill="#B2D3FF" rx="2"/><path fill="#197BFF" d="M0 .99C0 .445.45 0 1.007 0h11.986c.556 0 1.32.313 1.718.71l.578.58c.393.392 1.156.71 1.712.71h13.005C31.107 2 32 2.895 32 4H17c-.552 0-1.313.313-1.71.71l-.58.58c-.392.392-1.16.71-1.717.71H1.007A1.004 1.004 0 0 1 0 5.01V.99z"/></g></svg>
